X: 26030
T: Mazurka Des Écoliers De Saint Genest
R: mazurka
M: 3/4
K: Eminor
|:E F>E|"Em" B2 B>c d>e|B2 B2 c>B|"D" A2 B>A G>F|"Em" G2 E2 F>E|
"Em" B2 B>c d>e|B3B c>B|"D" A2 B>A G>F|"Em" E3:|
e e>d|:"Am" c2 c>B c>d|"C" e3 e d>c|"G" B2 B>A B>c|"Em" B2 E2 e>d|
"Am" c2 c>B c>d|"C" e3 e d>c|"G" B2 A>G F>G|1 "D" F3 e e>d:|2 "Em" E3||

